images/hero-bg.svg

<svg width="1964" height="675" viewBox="0 0 1964 675" fill="none" xmlns="http://www.w3.org/2000/svg">
<g clip-path="url(#clip0_722_231)">
<path d="M60 644.039C35.0649 646.844 32.8831 649.182 30.0779 674.117C27.2727 649.182 24.9351 646.844 0 644.039C24.9351 641.234 27.2727 639.052 30.0779 614.117C32.8831 639.052 35.0649 641.234 60 644.039Z" fill="#1E84B5" fill-opacity="0.1"/>
<path d="M70.1641 619.964C58.5277 621.273 57.5095 622.364 56.2004 634C54.8913 622.364 53.8004 621.273 42.1641 619.964C53.8004 618.655 54.8913 617.636 56.2004 606C57.5095 617.636 58.5277 618.655 70.1641 619.964Z" fill="#1E84B5" fill-opacity="0.1"/>
<path d="M913.5 513.938C893.552 516.182 891.807 518.052 889.562 538C887.318 518.052 885.448 516.182 865.5 513.938C885.448 511.693 887.318 509.948 889.562 490C891.807 509.948 893.552 511.693 913.5 513.938Z" fill="#1E84B5" fill-opacity="0.1"/>
<path d="M1923.4 80C1917.81 80 1913.37 75.4644 1913.37 69.9638V10.1327C1913.37 4.53559 1917.81 0 1923.4 0C1929 0 1933.54 4.53559 1933.54 10.1327V69.9638C1933.54 75.4644 1929 80 1923.4 80Z" fill="#1E84B5" fill-opacity="0.1"/>
<path d="M1883.45 40.0468C1883.45 34.4497 1887.89 29.9141 1893.49 29.9141H1953.32C1958.92 29.9141 1963.36 34.4497 1963.36 40.0468C1963.36 45.6439 1958.92 50.083 1953.32 50.083H1893.49C1887.89 50.083 1883.45 45.6439 1883.45 40.0468Z" fill="#1E84B5" fill-opacity="0.1"/>
<path d="M369.055 124.081C339.964 127.354 337.418 130.081 334.146 159.172C330.873 130.081 328.146 127.354 299.055 124.081C328.146 120.808 330.873 118.263 334.146 89.1719C337.418 118.263 339.964 120.808 369.055 124.081Z" fill="#1E84B5" fill-opacity="0.1"/>
<path d="M1615.05 511.734C1610.86 511.734 1607.45 508.325 1607.45 504.137V459.332C1607.45 455.144 1610.86 451.734 1615.05 451.734C1619.14 451.734 1622.55 455.144 1622.55 459.332V504.137C1622.55 508.325 1619.14 511.734 1615.05 511.734Z" fill="#1E84B5" fill-opacity="0.1"/>
<path d="M1585.05 481.738C1585.05 477.55 1588.46 474.141 1592.55 474.141H1637.45C1641.64 474.141 1644.95 477.55 1644.95 481.738C1644.95 485.926 1641.64 489.336 1637.45 489.336H1592.55C1588.46 489.336 1585.05 485.926 1585.05 481.738Z" fill="#1E84B5" fill-opacity="0.1"/>
</g>
<defs>
<clipPath id="clip0_722_231">
<rect width="1964" height="675" fill="white"/>
</clipPath>
</defs>
</svg>

<svg xmlns="http://www.w3.org/2000/svg" width="1964" height="675" fill="none" viewBox="0 0 1964 675"><g fill="#1e84b5" fill-opacity=".1" clip-path="url(#a)"><path d="M60 644.039c-24.935 2.805-27.117 5.143-29.922 30.078-2.805-24.935-5.143-27.273-30.078-30.078 24.935-2.805 27.273-4.987 30.078-29.922 2.805 24.935 4.987 27.117 29.922 29.922m10.164-24.075C58.528 621.273 57.51 622.364 56.2 634c-1.309-11.636-2.4-12.727-14.036-14.036C53.8 618.655 54.891 617.636 56.2 606c1.31 11.636 2.328 12.655 13.964 13.964M913.5 513.938c-19.948 2.244-21.693 4.114-23.938 24.062-2.244-19.948-4.114-21.818-24.062-24.062 19.948-2.245 21.818-3.99 24.062-23.938 2.245 19.948 3.99 21.693 23.938 23.938M1923.4 80c-5.59 0-10.03-4.536-10.03-10.036V10.133c0-5.597 4.44-10.133 10.03-10.133 5.6 0 10.14 4.536 10.14 10.133v59.83c0 5.501-4.54 10.037-10.14 10.037"/><path d="M1883.45 40.047c0-5.597 4.44-10.133 10.04-10.133h59.83c5.6 0 10.04 4.536 10.04 10.133s-4.44 10.036-10.04 10.036h-59.83c-5.6 0-10.04-4.44-10.04-10.036M369.055 124.081c-29.091 3.273-31.637 6-34.909 35.091-3.273-29.091-6-31.818-35.091-35.091 29.091-3.273 31.818-5.818 35.091-34.91 3.272 29.092 5.818 31.637 34.909 34.91M1615.05 511.734c-4.19 0-7.6-3.409-7.6-7.597v-44.805c0-4.188 3.41-7.598 7.6-7.598 4.09 0 7.5 3.41 7.5 7.598v44.805c0 4.188-3.41 7.597-7.5 7.597"/><path d="M1585.05 481.738c0-4.188 3.41-7.597 7.5-7.597h44.9c4.19 0 7.5 3.409 7.5 7.597s-3.31 7.598-7.5 7.598h-44.9c-4.09 0-7.5-3.41-7.5-7.598"/></g><defs><clipPath id="a"><path fill="#fff" d="M0 0h1964v675H0z"/></clipPath></defs></svg>
